X: 1
T:The Mens of the West  "St. Ann's of Hampton Version"
M:6/8
L:1/8
Q:80
C:Thomas Davis
S:March 6/8
K:HP
|: e|
{g}A2{GdGe}A{gcd}c3/2B/2A|
{gef}e3{g}f3/2g/2a|
{ef}e3/2c/2A{g}B3/2c/2B|  !
{g}B3{GdGe}B2e|
{g}A2{GdGe}A{gcd}c3/2B/2A|
{gef}e3{g}f3/2g/2a|  !
{ef}e3/2c/2A{g}B3/2c/2B|
{g}A3{GAG}A2:| |:
e|  !
{ef}e3/2c/2e{gef}e3/2B/2g|
{ag}a3{g}a3/2g/2f|
{ef}e3/2c/2A{g}A3/2c/2B|  !
{g}B3{GdGe}B2e|
{g}A2{GdGe}A{gcd}c3/2B/2A|
{gef}e3{g}f3/2g/2a|  !
{ef}e3/2c/2A{g}B3/2c/2B|
{g}A3{GAG}A2:|
